dist/svgs/unicons/line/flask-potion.svg

<svg xmlns="http://www.w3.org/2000/svg" data-name="Layer 1" viewBox="0 0 24 24"><path d="M18.93 11.67a.42.42 0 000-.1A7.4 7.4 0 0015 7.62V4h1a1 1 0 000-2H8a1 1 0 000 2h1v3.62a7.4 7.4 0 00-3.89 4 .42.42 0 000 .1 7.5 7.5 0 1013.86 0zm-8.62-2.41a1 1 0 00.69-.95V4h2v4.31a1 1 0 00.69.95A5.43 5.43 0 0116.23 11H7.77a5.43 5.43 0 012.54-1.74zM12 20a5.51 5.51 0 01-5.5-5.5 5.34 5.34 0 01.22-1.5h10.56a5.34 5.34 0 01.22 1.5A5.51 5.51 0 0112 20zm2-4a1 1 0 101 1 1 1 0 00-1-1zm-4-1a1 1 0 101 1 1 1 0 00-1-1z"/></svg>

<svg xmlns="http://www.w3.org/2000/svg" data-name="Layer 1" viewBox="0 0 24 24"><path d="M18.93,11.67a.42.42,0,0,0,0-.1A7.4,7.4,0,0,0,15,7.62V4h1a1,1,0,0,0,0-2H8A1,1,0,0,0,8,4H9V7.62a7.4,7.4,0,0,0-3.89,4,.42.42,0,0,0,0,.1,7.5,7.5,0,1,0,13.86,0ZM10.31,9.26A1,1,0,0,0,11,8.31V4h2V8.31a1,1,0,0,0,.69.95A5.43,5.43,0,0,1,16.23,11H7.77A5.43,5.43,0,0,1,10.31,9.26ZM12,20a5.51,5.51,0,0,1-5.5-5.5A5.34,5.34,0,0,1,6.72,13H17.28a5.34,5.34,0,0,1,.22,1.5A5.51,5.51,0,0,1,12,20Zm2-4a1,1,0,1,0,1,1A1,1,0,0,0,14,16Zm-4-1a1,1,0,1,0,1,1A1,1,0,0,0,10,15Z"/></svg>
